assets/icons/icon_star_deselect.svg

<svg width="48" height="48" viewBox="0 0 48 48" fill="none" xmlns="http://www.w3.org/2000/svg">
<g clip-path="url(#clip0_2188_3259)">
<path d="M23.9997 7.79004C24.1897 7.79004 24.5397 7.84004 24.7997 8.19004L29.9497 14.97C30.5497 15.76 31.3597 16.34 32.2897 16.67L40.3297 19.47C40.7397 19.61 40.8897 19.93 40.9497 20.11C41.0097 20.29 41.0697 20.63 40.8197 20.99L35.9597 27.98C35.3997 28.79 35.0897 29.74 35.0697 30.73L34.8897 39.24C34.8797 39.85 34.3597 40.22 33.8997 40.22C33.7997 40.22 33.7097 40.21 33.5997 40.17L25.4497 37.71C24.9797 37.57 24.4997 37.5 24.0097 37.5C23.5197 37.5 23.0297 37.57 22.5697 37.71L14.4197 40.17C14.3197 40.2 14.2197 40.22 14.1197 40.22C13.6497 40.22 13.1397 39.84 13.1297 39.24L12.9497 30.73C12.9297 29.74 12.6197 28.79 12.0597 27.98L7.19971 20.99C6.94971 20.64 7.00971 20.29 7.06971 20.11C7.12971 19.93 7.27971 19.62 7.68971 19.47L15.7297 16.67C16.6597 16.35 17.4697 15.76 18.0697 14.97L23.2197 8.19004C23.4797 7.85004 23.8297 7.79004 24.0197 7.79004M23.9997 4.79004C22.8097 4.79004 21.6097 5.32004 20.8097 6.37004L15.6597 13.15C15.4197 13.46 15.0997 13.7 14.7197 13.83L6.67971 16.63C4.17971 17.5 3.19971 20.52 4.70971 22.69L9.56971 29.68C9.78971 30 9.91971 30.39 9.92971 30.78L10.1097 39.29C10.1597 41.53 11.9997 43.21 14.0997 43.21C14.4797 43.21 14.8697 43.15 15.2597 43.04L23.4097 40.58C23.5997 40.52 23.7897 40.49 23.9897 40.49C24.1897 40.49 24.3797 40.52 24.5697 40.58L32.7197 43.04C33.1097 43.16 33.4997 43.21 33.8797 43.21C35.9797 43.21 37.8297 41.53 37.8697 39.29L38.0497 30.78C38.0497 30.39 38.1797 30 38.4097 29.68L43.2697 22.69C44.7797 20.52 43.7997 17.5 41.2997 16.63L33.2597 13.83C32.8897 13.7 32.5597 13.46 32.3197 13.15L27.1697 6.37004C26.3697 5.32004 25.1797 4.79004 23.9797 4.79004H23.9997Z" fill="black"/>
</g>
<defs>
<clipPath id="clip0_2188_3259">
<rect width="48" height="48" fill="white"/>
</clipPath>
</defs>
</svg>

<?xml version="1.0" encoding="UTF-8"?>
<svg xmlns="http://www.w3.org/2000/svg" viewBox="0 0 48 48">
  <defs>
    <style>
      .cls-1 {
        fill: none;
        opacity: .2;
      }
    </style>
  </defs>
  <g id="guid">
    <g>
      <rect class="cls-1" x="0" width="48" height="48"/>
      <rect class="cls-1" x="4" y="4" width="40" height="40"/>
    </g>
  </g>
  <g id="Layer_2" data-name="Layer 2">
    <path d="M24,7.79c.19,0,.54.05.8.4l5.15,6.78c.6.79,1.41,1.37,2.34,1.7l8.04,2.8c.41.14.56.46.62.64.06.18.12.52-.13.88l-4.86,6.99c-.56.81-.87,1.76-.89,2.75l-.18,8.51c-.01.61-.53.98-.99.98-.1,0-.19-.01-.3-.05l-8.15-2.46c-.47-.14-.95-.21-1.44-.21s-.98.07-1.44.21l-8.15,2.46c-.1.03-.2.05-.3.05-.47,0-.98-.38-.99-.98l-.18-8.51c-.02-.99-.33-1.94-.89-2.75l-4.86-6.99c-.25-.35-.19-.7-.13-.88.06-.18.21-.49.62-.64l8.04-2.8c.93-.32,1.74-.91,2.34-1.7l5.15-6.78c.26-.34.61-.4.8-.4M24,4.79c-1.19,0-2.39.53-3.19,1.58l-5.15,6.78c-.24.31-.56.55-.94.68l-8.04,2.8c-2.5.87-3.48,3.89-1.97,6.06l4.86,6.99c.22.32.35.71.36,1.1l.18,8.51c.05,2.24,1.89,3.92,3.99,3.92.38,0,.77-.06,1.16-.17l8.15-2.46c.19-.06.38-.09.58-.09s.39.03.58.09l8.15,2.46c.39.12.78.17,1.16.17,2.1,0,3.95-1.68,3.99-3.92l.18-8.51c0-.39.13-.78.36-1.1l4.86-6.99c1.51-2.17.53-5.19-1.97-6.06l-8.04-2.8c-.37-.13-.7-.37-.94-.68l-5.15-6.78c-.8-1.05-1.99-1.58-3.19-1.58h0Z"/>
  </g>
</svg>
